public/tokens/BTC.svg

<svg width="40" height="40" viewBox="0 0 40 40" fill="none" xmlns="http://www.w3.org/2000/svg">
<path d="M39.3993 24.8381C36.7282 35.5525 25.8763 42.0731 15.1606 39.4012C4.44942 36.7301 -2.07115 25.8775 0.601168 15.1639C3.27114 4.44838 14.1231 -2.07268 24.8354 0.598468C35.5503 3.26961 42.0705 14.1234 39.399 24.8383L39.3992 24.8381H39.3993Z" fill="#F7931A"/>
<path fill-rule="evenodd" clip-rule="evenodd" d="M28.8202 17.1501C29.2183 14.4886 27.1919 13.0579 24.4211 12.1035L25.32 8.49814L23.1253 7.95128L22.2503 11.4617C21.6733 11.3178 21.0808 11.1822 20.4919 11.0478L21.3733 7.51421L19.18 6.96735L18.2806 10.5715C17.8031 10.4628 17.3342 10.3554 16.8792 10.2421L16.8818 10.2308L13.8553 9.47504L13.2715 11.8191C13.2715 11.8191 14.8997 12.1923 14.8654 12.2153C15.7541 12.4371 15.9148 13.0254 15.8882 13.4917L14.8642 17.599C14.9254 17.6146 15.0048 17.6371 15.0924 17.6723L15.0288 17.6564L15.0287 17.6563C14.9745 17.6428 14.9182 17.6287 14.8604 17.6149L13.4252 23.3686C13.3166 23.6386 13.0409 24.0438 12.4196 23.89C12.4416 23.9218 10.8245 23.4919 10.8245 23.4919L9.73486 26.0041L12.5909 26.7161C12.9036 26.7945 13.2127 26.8751 13.5186 26.9548L13.5188 26.9549C13.7325 27.0106 13.9447 27.0659 14.1556 27.1198L13.2474 30.7665L15.4395 31.3133L16.3389 27.7054C16.9378 27.8679 17.519 28.0179 18.0879 28.1593L17.1916 31.7502L19.3863 32.2971L20.2944 28.6572C24.0368 29.3655 26.8508 29.08 28.0352 25.695C28.9896 22.9697 27.9877 21.3977 26.0188 20.3726C27.4529 20.0419 28.533 19.0987 28.821 17.1504L28.8203 17.1499L28.8202 17.1501ZM23.8057 24.1818C23.1835 26.6822 19.2697 25.6485 17.479 25.1755C17.3179 25.133 17.174 25.0949 17.0512 25.0645L18.2564 20.2333C18.406 20.2706 18.5889 20.3116 18.7961 20.3581C20.6483 20.7738 24.4433 21.6255 23.8058 24.1818H23.8057ZM19.1689 18.1159C20.6618 18.5143 23.9186 19.3835 24.4858 17.111H24.486C25.0651 14.7867 21.9001 14.086 20.3543 13.7438C20.1804 13.7053 20.027 13.6713 19.9017 13.6401L18.809 18.0217C18.9122 18.0474 19.0333 18.0797 19.1689 18.1159Z" fill="white"/>
</svg>

<svg xmlns="http://www.w3.org/2000/svg" width="40" height="40" fill="none" viewBox="0 0 40 40"><path fill="#f7931a" d="M39.4 24.838c-2.672 10.715-13.524 17.235-24.24 14.563C4.45 36.731-2.07 25.877.602 15.164 3.271 4.448 14.123-2.073 24.835.598 35.55 3.27 42.071 14.123 39.4 24.838"/><path fill="#fff" fill-rule="evenodd" d="M28.82 17.15c.398-2.661-1.628-4.092-4.399-5.046l.899-3.606-2.195-.547-.875 3.51a96 96 0 0 0-1.758-.413l.881-3.534-2.193-.547-.9 3.605a72 72 0 0 1-1.4-.33l.002-.011-3.027-.756-.584 2.344s1.629.373 1.594.396c.89.222 1.05.81 1.023 1.277l-1.024 4.107c.061.016.14.038.228.073l-.063-.016-.169-.041-1.435 5.754c-.108.27-.384.675-1.005.521.022.032-1.595-.398-1.595-.398l-1.09 2.512 2.856.712q.47.119.928.239l.637.165-.909 3.646 2.193.547.899-3.608q.897.243 1.749.454l-.896 3.591 2.194.547.908-3.64c3.743.709 6.557.423 7.741-2.962.955-2.725-.047-4.297-2.016-5.322 1.434-.331 2.514-1.274 2.802-3.223m-5.014 7.032c-.623 2.5-4.536 1.467-6.327.994q-.242-.065-.428-.111l1.205-4.832c.15.038.333.079.54.125 1.852.416 5.647 1.267 5.01 3.824m-4.637-6.066c1.493.398 4.75 1.268 5.317-1.005.58-2.324-2.586-3.025-4.132-3.367a19 19 0 0 1-.452-.104l-1.093 4.382q.155.039.36.094" clip-rule="evenodd"/></svg>
